X:625
T: ALL WELT SOLL BILLIG FROEHLICH SEIN
N: E1978
O: Europa, Mitteleuropa, Deutschland
R: geistlich, Fest - Lied, Ostern
M: 3/4
L: 1/4
K: C
c | c2c | ced | cBA | G2
B | c2B | A2G | Acc | B2
G | EFG | A2G | G2E | C2
D | E2D | E2A | AGF | E2

@@@ Tune index: 5309
